X:1
T: The Earl of Fife
C:William Marshall
R:Strathspey
Q: 128
K:Bb
M:4/4
L:1/16
|:b2|fd3 d3B c3d e3g|fd3 d3f g4 g2b2|fd3 d3c B3c d2B2|G2c2 BAGF B4 B2b2|
fd3 d3B c3d e3g|fd3 d3f g4 g2b2|fd3 d3c B3c d2B2|G2c2 BAGF B4 B2d2|
B3F GFED F3G B2d2|fd3 B3d c4 c2dc|B3F GFED B3c db3|fd3 c3d B4 B2dc|
B3F GFED F3G B2d2|fd3 B3d c4 ce3|((3d2e2f2) ((3g2a2b2) ((3g2f2e2) ((3d2c2B2)|G3c ABcA B4 B2:|
